app/themes/uggwc_pro/assets/images/icons/check.svg

<svg width="8" height="8" viewBox="0 0 8 8" fill="none" xmlns="http://www.w3.org/2000/svg">
<g clip-path="url(#clip0_154_209)">
<path d="M3.06334 6.98845C2.98698 7.06526 2.88279 7.10812 2.77456 7.10812C2.66634 7.10812 2.56215 7.06526 2.48578 6.98845L0.179506 4.6818C-0.0598353 4.44246 -0.0598353 4.05435 0.179506 3.81546L0.468286 3.5266C0.707702 3.28726 1.09536 3.28726 1.3347 3.5266L2.77456 4.96654L6.66528 1.07575C6.9047 0.836405 7.29273 0.836405 7.5317 1.07575L7.82048 1.3646C8.05982 1.60394 8.05982 1.99197 7.82048 2.23094L3.06334 6.98845Z" fill="#6E6CFF"/>
</g>
<defs>
<clipPath id="clip0_154_209">
<rect width="8" height="8" fill="white"/>
</clipPath>
</defs>
</svg>

<svg width="8" height="8" fill="none" xmlns="http://www.w3.org/2000/svg"><g clip-path="url(#a)"><path d="M3.063 6.988a.407.407 0 0 1-.577 0L.18 4.682a.612.612 0 0 1 0-.867l.288-.288c.24-.24.627-.24.867 0l1.44 1.44 3.89-3.891c.24-.24.628-.24.867 0l.288.289c.24.239.24.627 0 .866L3.063 6.988z" fill="#6E6CFF"/></g><defs><clipPath id="a"><path fill="#fff" d="M0 0h8v8H0z"/></clipPath></defs></svg>
